X:574
T: ES LEUCHTET SCHON
N: E0538
O: Europa, Mitteleuropa, Deutschland, Uckermark, Gramzow
R: Liebes - Lied
M: 3/4
L: 1/8
K: C
EF | G2EGcd | e2G2
AB | c3d(3cBA | G4
EF | G2c2BA | G2EG
cE | G3FDE | C4
EF | G2c2BA | G2EG
cE | G3FDE | C4

@@@ Tune index: 4224
